src/components/ProtocolIcon/fuse.svg

<svg width="14" height="16" viewBox="0 0 14 16" fill="none" xmlns="http://www.w3.org/2000/svg">
<path fill-rule="evenodd" clip-rule="evenodd" d="M4.31117 1.50111L6.85954 0.0313606C6.93211 -0.0104535 7.02208 -0.0104535 7.09471 0.0313606L13.811 3.90401C13.8836 3.94582 13.9282 4.02318 13.9289 4.10681L13.938 6.77031C13.938 6.85466 13.8933 6.93271 13.82 6.97452L11.2752 8.44219C11.1189 8.53278 10.9228 8.41989 10.9221 8.23938L10.9137 5.84904C10.9137 5.76542 10.8683 5.68806 10.7958 5.64624L4.31117 1.9081C4.15417 1.8175 4.15417 1.59171 4.31117 1.50111ZM2.66558 13.5657L0.117927 12.0966C0.0446589 12.0548 0 11.9774 0 11.8932V4.14784C0 4.06422 0.0446589 3.98686 0.11723 3.94435L2.42275 2.60422C2.49602 2.56171 2.58603 2.56171 2.6586 2.60422L5.20346 4.07188C5.35977 4.16248 5.36047 4.38757 5.20416 4.47887L3.13589 5.68101C3.06332 5.72283 3.01867 5.80018 3.01867 5.8845V13.3629C3.01867 13.5441 2.82258 13.6563 2.66558 13.5657ZM13.938 11.8925V8.95436L13.9373 8.9537C13.9373 8.77252 13.7412 8.65963 13.5842 8.75022L7.09964 12.4897C7.02708 12.5309 6.9377 12.5315 6.86514 12.4897L4.78853 11.3015C4.63152 11.2123 4.43614 11.3252 4.43614 11.5057V14.4403C4.43614 14.5247 4.4815 14.6027 4.55477 14.6445L6.86932 15.9686C6.94196 16.0105 7.03127 16.0105 7.10383 15.9686L13.8201 12.096C13.8933 12.0542 13.938 11.9768 13.938 11.8925Z" fill="currentColor"/>
</svg>

<svg xmlns="http://www.w3.org/2000/svg" width="14" height="16" fill="none"><path fill="currentColor" fill-rule="evenodd" d="M4.311 1.501 6.86.031a.24.24 0 0 1 .235 0l6.716 3.873c.073.042.117.12.118.203l.009 2.663a.24.24 0 0 1-.118.205l-2.545 1.467a.235.235 0 0 1-.353-.203l-.008-2.39a.24.24 0 0 0-.118-.203L4.31 1.908a.235.235 0 0 1 0-.407M2.666 13.566l-2.548-1.47A.23.23 0 0 1 0 11.894V4.148c0-.084.045-.161.117-.204l2.306-1.34a.23.23 0 0 1 .236 0l2.544 1.468a.235.235 0 0 1 .001.407L3.136 5.68a.23.23 0 0 0-.117.204v7.478a.235.235 0 0 1-.353.203m11.272-1.674V8.955a.235.235 0 0 0-.354-.204L7.1 12.49a.24.24 0 0 1-.235 0L4.79 11.302a.236.236 0 0 0-.353.204v2.934c0 .085.045.163.119.205l2.314 1.324a.23.23 0 0 0 .235 0l6.716-3.873a.23.23 0 0 0 .118-.203" clip-rule="evenodd"/></svg>
